images_breeze_svg/cmd/32/displaymasterobjects.svg

<svg viewBox="0 0 32 32" xmlns="http://www.w3.org/2000/svg"><path d="m4 6v12 1l7 7h1 8.144531c-.3817-.285098-.718387-.620172-1.005859-1h-7.138672v-7h-7v-11h22v9.779297c.343856.144963.675035.318023 1 .5v-11.279297zm19.119141 11c-3.280109.0043-6.298117 1.792832-7.876953 4.667969.128944.363734.357438.676587.65625.908203 1.321789-2.791309 4.132254-4.572462 7.220703-4.576172-2.209139 0-4 1.790861-4 4s1.790861 4 4 4 4-1.790861 4-4c.008-2.079511-1.578821-3.81826-3.650391-4 2.961312.134551 5.605464 1.895565 6.871094 4.576172.301515-.233711.531909-.55005.660156-.917969-1.582074-2.87259-4.601418-4.657258-7.880859-4.658203zm0 2c1.656854 0 3 1.343146 3 3s-1.343146 3-3 3-3-1.343146-3-3 1.343146-3 3-3zm.191406.980469c-.06408.0034-.127954.010001-.191406.019531-1.104569 0-2 .895431-2 2s.895431 2 2 2 2-.89543 2-2c.02896-.194894.02896-.392997 0-.587891-.174008.38903-.57545.625034-1 .587891-.552285 0-1-.447715-1-1-.03682-.425027.200048-.826611.589843-1-.13183-.01977-.265306-.026321-.398437-.019531z" fill="#1d99f3"/></svg>

<?xml version="1.0" encoding="UTF-8" standalone="no"?>
<svg
   xmlns:dc="http://purl.org/dc/elements/1.1/"
   xmlns:cc="http://creativecommons.org/ns#"
   xmlns:rdf="http://www.w3.org/1999/02/22-rdf-syntax-ns#"
   xmlns:svg="http://www.w3.org/2000/svg"
   xmlns="http://www.w3.org/2000/svg"
   xmlns:sodipodi="http://sodipodi.sourceforge.net/DTD/sodipodi-0.dtd"
   xmlns:inkscape="http://www.inkscape.org/namespaces/inkscape"
   viewBox="0 0 32 32"
   version="1.1"
   id="svg4"
   sodipodi:docname="displaymasterobjects.svg"
   inkscape:version="0.92.4 (unknown)"
   inkscape:export-filename="/home/rizmut/Dokumen/Rizmut/Github/tmp/breeze/cmd/32/displaymasterobjects.png"
   inkscape:export-xdpi="96"
   inkscape:export-ydpi="96">
  <metadata
     id="metadata10">
    <rdf:RDF>
      <cc:Work
         rdf:about="">
        <dc:format>image/svg+xml</dc:format>
        <dc:type
           rdf:resource="http://purl.org/dc/dcmitype/StillImage" />
        <dc:title></dc:title>
      </cc:Work>
    </rdf:RDF>
  </metadata>
  <defs
     id="defs8" />
  <sodipodi:namedview
     pagecolor="#ffffff"
     bordercolor="#666666"
     borderopacity="1"
     objecttolerance="10"
     gridtolerance="10"
     guidetolerance="10"
     inkscape:pageopacity="0"
     inkscape:pageshadow="2"
     inkscape:window-width="1360"
     inkscape:window-height="714"
     id="namedview6"
     showgrid="true"
     inkscape:zoom="14.75"
     inkscape:cx="22.17516"
     inkscape:cy="12.646675"
     inkscape:window-x="0"
     inkscape:window-y="28"
     inkscape:window-maximized="1"
     inkscape:current-layer="svg4">
    <inkscape:grid
       type="xygrid"
       id="grid823" />
  </sodipodi:namedview>
  <path
     style="fill:#1d99f3"
     d="M 4 6 L 4 18 L 4 19 L 11 26 L 12 26 L 20.144531 26 C 19.762831 25.714902 19.426144 25.379828 19.138672 25 L 12 25 L 12 18 L 5 18 L 5 7 L 27 7 L 27 16.779297 C 27.343856 16.92426 27.675035 17.09732 28 17.279297 L 28 6 L 4 6 z M 23.119141 17 C 19.839032 17.0043 16.821024 18.792832 15.242188 21.667969 C 15.371132 22.031703 15.599626 22.344556 15.898438 22.576172 C 17.220227 19.784863 20.030692 18.00371 23.119141 18 C 20.910002 18 19.119141 19.790861 19.119141 22 C 19.119141 24.209139 20.910002 26 23.119141 26 C 25.32828 26 27.119141 24.209139 27.119141 22 C 27.127141 19.920489 25.54032 18.18174 23.46875 18 C 26.430062 18.134551 29.074214 19.895565 30.339844 22.576172 C 30.641359 22.342461 30.871753 22.026122 31 21.658203 C 29.417926 18.785613 26.398582 17.000945 23.119141 17 z M 23.119141 19 C 24.775995 19 26.119141 20.343146 26.119141 22 C 26.119141 23.656854 24.775995 25 23.119141 25 C 21.462287 25 20.119141 23.656854 20.119141 22 C 20.119141 20.343146 21.462287 19 23.119141 19 z M 23.310547 19.980469 C 23.246467 19.983869 23.182593 19.99047 23.119141 20 C 22.014572 20 21.119141 20.895431 21.119141 22 C 21.119141 23.104569 22.014572 24 23.119141 24 C 24.22371 24 25.119141 23.10457 25.119141 22 C 25.148101 21.805106 25.148101 21.607003 25.119141 21.412109 C 24.945133 21.801139 24.543691 22.037143 24.119141 22 C 23.566856 22 23.119141 21.552285 23.119141 21 C 23.082321 20.574973 23.319189 20.173389 23.708984 20 C 23.577154 19.98023 23.443678 19.973679 23.310547 19.980469 z "
     id="path2" />
</svg>
